!!!OTL: ES WAR A MOL A MADEL
!!!ARE: Europa, Mitteleuropa, Deutschland, Schlesien
!!!SCT: E0003
!!!YEM: Copyright 1995, estate of Helmut Schaffrath.
**kern
*ICvox
*Ivox
*M2/4
*k[]
*C:
{8G
=1
8c
8B
8c
8d
=2
8c
8B
8B}
{8G
=3
8c
8B
8c
8e-
=4
4d
8r}
{8d
=5
8e-
8d
8e-
8f
=6
8e-
8d
8d}
{8B
=7
16c
16d
8e-
16d
16c
8B
=8
4c
8r}
==
!!!AGN: Sage, Maerchen -, Zauber - Lied, Ruebezahl; Gebirgs - Hirten - Lied, Ballade ?
!!!ONB: ESAC (Essen Associative Code) Database: ERK1
!!!AMT: simple duple
!!!AIN: vox
!!!EED: Helmut Schaffrath
!!!EEV: 1.0
*-
